X: 43570
T: Young Favourite, The
R: jig
M: 6/8
K: Dmajor
E|:F2 D EDB,|A,B,C DEF|G2 B AFD|EDE GFE|
F2 D EDB,|A,B,C DEF|G2 B AFD|1 EFE D2 E:|2 EFE D2 A||
|:d2 A BAF|def afe|d2 A BAF|dAF E2 A|
d2 A BAF|def gfe|fdf afe|1 afe d2 e:|2 afe d3||

